webapp/src/assets/icons/cloudproviders/aws/storage/backup_vault.svg

<svg width="48" height="48" xmlns="http://www.w3.org/2000/svg"><path d="m10.298 22.955-2 .014c.035 5.013 2.356 9.604 6.37 12.595a15.747 15.747 0 0 0 9.441 3.132c4.833 0 9.608-2.2 12.711-6.364 5.216-6.998 3.767-16.936-3.231-22.152-6.776-5.05-16.292-3.835-21.626 2.595L12 10.014l-2-.027-.067 5A.998.998 0 0 0 10.919 16l5.067.068.028-2-2.501-.033c4.663-5.605 12.966-6.659 18.881-2.252 6.113 4.558 7.38 13.24 2.823 19.354-4.559 6.114-13.238 7.38-19.354 2.823-3.506-2.613-5.535-6.625-5.565-11.005ZM24 19c-2.206 0-4 1.795-4 4 0 2.206 1.794 4 4 4s4-1.794 4-4c0-2.205-1.794-4-4-4Zm-7.054 9.78 2.229-2.228A5.968 5.968 0 0 1 18 23c0-1.378.473-2.647 1.257-3.661l-2.31-2.148 1.362-1.464 2.42 2.25a5.955 5.955 0 0 1 6.848.218l2.405-2.469 1.432 1.395-2.449 2.515A5.972 5.972 0 0 1 30 23a5.963 5.963 0 0 1-1.045 3.377l2.459 2.379-1.39 1.438-2.459-2.379a5.96 5.96 0 0 1-6.955.131l-2.249 2.248-1.415-1.414ZM35 44h4v-1h-4v1ZM9 44h4v-1H9v1ZM46 3v39a1 1 0 0 1-1 1h-4v2a1 1 0 0 1-1 1h-6a1 1 0 0 1-1-1v-2H15v2a1 1 0 0 1-1 1H8a1 1 0 0 1-1-1v-2H3a1 1 0 0 1-1-1v-9h2v8h40V4H4v7H2V3a1 1 0 0 1 1-1h42a1 1 0 0 1 1 1ZM2 27h2V17H2v10Z" fill="#7AA116" fill-rule="evenodd"/></svg>

<?xml version="1.0" encoding="UTF-8"?>
<svg width="48px" height="48px" viewBox="0 0 48 48" version="1.1" xmlns="http://www.w3.org/2000/svg" xmlns:xlink="http://www.w3.org/1999/xlink">
    <title>Icon-Resource/Storage/Res_AWS-Backup_Backup-Vault_48</title>
    <g id="Icon-Resource/Storage/Res_AWS-Backup_Backup-Vault_48" stroke="none" stroke-width="1" fill="none" fill-rule="evenodd">
        <path d="M10.298,22.955 L8.298,22.969 C8.333,27.982 10.654,32.573 14.668,35.564 C17.503,37.677 20.819,38.696 24.109,38.696 C28.942,38.696 33.717,36.496 36.82,32.332 C42.036,25.334 40.587,15.396 33.589,10.18 C26.813,5.13 17.297,6.345 11.963,12.775 L12,10.014 L10,9.987 L9.933,14.987 C9.929,15.252 10.031,15.508 10.216,15.698 C10.402,15.888 10.654,15.997 10.919,16 L15.986,16.068 L16.014,14.068 L13.513,14.035 C18.176,8.43 26.479,7.376 32.394,11.783 C38.507,16.341 39.774,25.023 35.217,31.137 C30.658,37.251 21.979,38.517 15.863,33.96 C12.357,31.347 10.328,27.335 10.298,22.955 L10.298,22.955 Z M24,19 C21.794,19 20,20.795 20,23 C20,25.206 21.794,27 24,27 C26.206,27 28,25.206 28,23 C28,20.795 26.206,19 24,19 L24,19 Z M16.946,28.78 L19.175,26.552 C18.441,25.556 18,24.33 18,23 C18,21.622 18.473,20.353 19.257,19.339 L16.947,17.191 L18.309,15.727 L20.729,17.977 C21.671,17.362 22.793,17 24,17 C25.342,17 26.577,17.448 27.577,18.195 L29.982,15.726 L31.414,17.121 L28.965,19.636 C29.617,20.597 30,21.754 30,23 C30,24.252 29.613,25.415 28.955,26.377 L31.414,28.756 L30.024,30.194 L27.565,27.815 C26.567,28.556 25.336,29 24,29 C22.742,29 21.574,28.61 20.61,27.946 L18.361,30.194 L16.946,28.78 Z M35,44 L39,44 L39,43 L35,43 L35,44 Z M9,44 L13,44 L13,43 L9,43 L9,44 Z M46,3 L46,42 C46,42.553 45.553,43 45,43 L41,43 L41,45 C41,45.553 40.553,46 40,46 L34,46 C33.447,46 33,45.553 33,45 L33,43 L15,43 L15,45 C15,45.553 14.553,46 14,46 L8,46 C7.447,46 7,45.553 7,45 L7,43 L3,43 C2.447,43 2,42.553 2,42 L2,33 L4,33 L4,41 L44,41 L44,4 L4,4 L4,11 L2,11 L2,3 C2,2.448 2.447,2 3,2 L45,2 C45.553,2 46,2.448 46,3 L46,3 Z M2,27 L4,27 L4,17 L2,17 L2,27 Z" id="Fill-1" fill="#7AA116"></path>
    </g>
</svg>
